svgs/sharp-light/backward-fast.svg

<svg xmlns="http://www.w3.org/2000/svg" viewBox="0 0 512 512"><!--! Font Awesome Pro 6.6.0 by @fontawesome - https://fontawesome.com License - https://fontawesome.com/license (Commercial License) Copyright 2024 Fonticons, Inc. --><path d="M32 64l0 16 0 138L224 86l32-22 0 38.8L256 240 480 86l32-22 0 38.8 0 306.3 0 38.8-32-22L256 272l0 137.2 0 38.8-32-22L32 294l0 138 0 16L0 448l0-16L0 272l0-32L0 80 0 64l32 0zm192 60.8L33.2 256 224 387.2l0-262.3zM289.2 256L480 387.2l0-262.3L289.2 256z"/></svg>

<svg xmlns="http://www.w3.org/2000/svg" viewBox="0 0 512 512"><!--! Font Awesome Pro 6.4.2 by @fontawesome - https://fontawesome.com License - https://fontawesome.com/license (Commercial License) Copyright 2023 Fonticons, Inc. --><path d="M32 64V80 218L224 86l32-22v38.8V240L480 86l32-22v38.8V409.2 448l-32-22L256 272V409.2 448l-32-22L32 294V432v16H0V432 272 240 80 64H32zm192 60.8L33.2 256 224 387.2V124.8zM289.2 256L480 387.2V124.8L289.2 256z"/></svg>
